X:1
T:094 - Jesus Na Cruz
T:Letra: Manoel Avelino de Souza (1886-1962)
T:Música: Melodia Americana
M:3/4
L:1/8
K:G
V:1
G2 | "D"FA A2 A2 | "G"GB B2 B2 | "C"AB c2 e2 | "G"d2 z2 Bd | "D7"dc c2 Ac | "G"cB B2 GB | "C"BA c2 "D7"FA | "G"G4 |]
w: 1.~Só tu, Je-sus, le-vas-tea cruz, Hu-mil-deem teu a-mor; No_ teu o-lhar bri_lha-vaa luz De_ com-pai-xão, Se_nhor!
w: 2.~Jul-ga-do fos-te co-mo réu, Pi-la-tos foi ju-iz; Deen_ga-na-dor foi_ teu la-béu, Jul_ga-ram-te in-fe-liz!
w: 3.~So-fres-te zom-ba-ri-as mil, Des-dém ea-mar-go fel; fe_riu-tea re-jei_ção hos-til De_ gen-te tão cru_el!
w: 4.~Sus-pen-soem um ma-dei-ro vil, Mos-tras-teo teu a-mor; Per_dão pra gen-te_ tão ser-vil Ro_gas-te, Sal-va_dor!
w: 5.~Ren-des-teoEs-pí-ri-toa Jeo-vá, Com gran-de bra-do teu, Sim:_ 'Tu-do con-su_ma-does-tá.' Mis_são queo Pai te_ deu!
W: 
W: 
W: 1. Só tu, Jesus, levaste a cruz,
W: Humilde em teu amor;
W: No teu olhar brilhava a luz
W: De compaixão, Senhor!
W: 
W: 2. Julgado foste como réu,
W: Pilatos foi juiz;
W: De enganador foi teu labéu,
W: Julgaram-te infeliz!
W: 
W: 3. Sofreste zombarias mil,
W: Desdém e amargo fel;
W: feriu-te a rejeição hostil
W: De gente tão cruel!
W: 
W:
W:
W: 4. Suspenso em um madeiro vil,
W: Mostraste o teu amor;
W: Perdão pra gente tão servil
W: Rogaste, Salvador!
W: 
W: 5. Rendeste o Espírito a Jeová,
W: Com grande brado teu,
W: Sim: 'Tudo consumado está.'
W: Missão que o Pai te deu!
W:
W:





%scale 0.70
